X:82
T:Bransle Double 1 (XII)
C:Michael Praetorius, 1612
L:1/4
M:2/2
S:Colin Hume's website,  colinhume.com  - chords can also be printed below the stave.
Q:1/2=110
Q:1/2=50
H:For the dance "Mr Colin's Humour" by Pat Ruggiero.
K:G
P:A
|: "G"G/A/B/c/ "(D)"d"(G)"B | "C"c/d/e "D"dA/B/ | "Am"cd/c/ "G"B/c/d | "C"cB "D"A/G/A/F/ |\
"Em"G/A/B/c/ "D"d/B/c/d/ | "C"e/c/d/e/ "G/B"dA/B/ | "Am"c"(D)"d/c/ "Em"Bc/B/ | "D"A/G/"D7"A/B/ "G"G2 :|
P:B
|: "G"gg "D"fe/f/ | "G"g"(D)"f "A"e/f/d | "A/C#"e/f/g/a/ "D"f"(G)"g/f/ | "A"e/d/e/^c/ "D"d2 :|
P:c
|: "G"dg "G"g"(D)"f/e/ | "D"f"(Em)"g "G"d"(Am)"A/B/ | "Am"c"(D)"d/c/ "Em"B/c/"(G/B)"d | "C"c"(G)"B "D"A"G"G :|

